X: 324
T: West Fork Gals
B: canberra pickers and fiddlers
B: tunes
M:C|
L:1/8
Q: 1/4=100
K:D
V:1 
|: "D"fgfe d2ef | "G"g2g2 B4 | "A7"efed c2A2 | ABAG "D"F2D2 | "D"fgfe d2ef |
| "G"g2g2 B4 | "A7"efed c2A2 | "A7"ABc2 "D"d4 :: "D"ABAG F2A2 | d2d2 F3A | "A7"G2F2 E3F |
| G2F2 E4 | efed cABc | "D"d2A2 F2A2 | d2d2 "A7"efg2 | f2e2 "D"d4 :|
% abcbook-tune_id 63da59344af54c4d84964daf
% abcbook-tune_composer_id 
% abcbook-link-0 https://www.youtube.com/watch?v=88t-RHdlo14
% abcbook-boost 0
% abcbook-difficulty 0
% abcbook-tags canberra pickers and fiddlers,old time tunes,© free
% abcbook-tablature 
% abcbook-transpose 
% abcbook-tuning ADAE
% abcbook-lastupdated 1696201492012
% abcbook-src-url https://tunebook.net/scrape/tunes.abc
% abcbook-soundfonts 
% abcbook-repeats 1
%%gchordfont "itim-music,Itim" 20

